X:1
T:Valsovin
C:traditionell
R:mazurka
A:Tirol
%%textfont Helvetica-Narrow 10pt
%%begintext align
B:nach: K.Horak, "Instrumentale Volksmusik aus Tirol" Institut f. Tiroler Volksmusikforschung
N:im buch zweistimmig
N:im buch s. 116 nr. 128
N:im buch ganz in F erster ton f'
%%endtext 
F:http://simonwascher.info/
Z:abc transcription Simon Wascher
M:2/4
L:1/8
K:G %Transposed from F
G>A Bz B2 | G>A Bz B2 | B>^A cz B2 | F4 z2 |\
F>G Az A2 | A>B cz c2 | d>cB>AG>F | G4 z2 |]
|:\
B>^A cz B2 | F4 z2 | A>F Bz F2 | G4 z2 |\
G>G Az G2 | F>F d2 zc | d>cB>cB>A | "1)"G4 z2 :|
(Gc B3 G) | F>G Az A2 | (Ae d3c) | c>B Bz B2 |  |\
(Gc B3 G) | F>G Az A2 | (Ae d3c) | B2B2 z2 :|
W:1) im buch die terz 
%%wordsfont Times-Italic 11pt
W:aus Simon Waschers TradArchiv



